sources/design/Outline/ൗ.svg

<svg:svg xmlns:cc="http://creativecommons.org/ns#" xmlns:dc="http://purl.org/dc/elements/1.1/" xmlns:inkscape="http://www.inkscape.org/namespaces/inkscape" xmlns:rdf="http://www.w3.org/1999/02/22-rdf-syntax-ns#" xmlns:sodipodi="http://sodipodi.sourceforge.net/DTD/sodipodi-0.dtd" xmlns:svg="http://www.w3.org/2000/svg" xml:space="preserve" width="1200" height="1000" version="1.1" style="clip-rule:evenodd;fill-rule:evenodd;image-rendering:optimizeQuality;shape-rendering:geometricPrecision;text-rendering:geometricPrecision" viewBox="0 0 1200 1000" id="svg10" sodipodi:docname="ൗ.svg" inkscape:version="1.0.2 (e86c870879, 2021-01-15)"><svg:metadata id="metadata14"><rdf:RDF><cc:Work rdf:about=""><dc:format>image/svg+xml</dc:format><dc:type rdf:resource="http://purl.org/dc/dcmitype/StillImage" /><dc:title /></cc:Work></rdf:RDF></svg:metadata><sodipodi:namedview pagecolor="#ffffff" bordercolor="#666666" borderopacity="1" objecttolerance="10" gridtolerance="10" guidetolerance="10" inkscape:pageopacity="0" inkscape:pageshadow="2" inkscape:window-width="1920" inkscape:window-height="1127" id="namedview12" showgrid="false" inkscape:zoom="1.356" inkscape:cx="143.39159" inkscape:cy="526.25735" inkscape:window-x="0" inkscape:window-y="0" inkscape:window-maximized="1" inkscape:current-layer="svg10" showguides="true" inkscape:guide-bbox="true" inkscape:document-rotation="0" inkscape:snap-to-guides="true" inkscape:pagecheckerboard="0"><sodipodi:guide position="0,1000" orientation="0,1" id="guide16" inkscape:label="" inkscape:locked="true" inkscape:color="rgb(0,0,255)" /><sodipodi:guide position="1763.3122,2036.1693" orientation="1000,0" id="guide18" /><sodipodi:guide position="0,200" orientation="0,1" id="guide20" inkscape:label="base" inkscape:locked="true" inkscape:color="rgb(0,0,255)" /><inkscape:grid type="xygrid" id="grid24" originx="-473.37552" originy="-489.69235" /><sodipodi:guide position="0,0" orientation="0,1" id="guide34" inkscape:label="bottom" inkscape:locked="true" inkscape:color="rgb(0,0,255)" /><sodipodi:guide position="225.05109,1693.3186" orientation="0,1" id="guide44" inkscape:label="" inkscape:locked="false" inkscape:color="rgb(0,0,255)" /><sodipodi:guide position="0,900" orientation="0,1" id="guide46" inkscape:label="" inkscape:locked="true" inkscape:color="rgb(0,0,255)" /><sodipodi:guide position="0,1000" orientation="0,1000" id="guide860" /><sodipodi:guide position="538.82052,370.28724" orientation="-1,0" id="guide862" inkscape:label="width" inkscape:locked="false" inkscape:color="rgb(0,0,255)" /><sodipodi:guide position="1000,0" orientation="0,-1000" id="guide864" /><sodipodi:guide position="0,0" orientation="-1000,0" id="guide866" /></sodipodi:namedview>
 <svg:defs id="defs4"><inkscape:path-effect effect="fillet_chamfer" id="path-effect859" is_visible="true" lpeversion="1" satellites_param="F,0,0,1,0,13.215188,0,1 @ F,0,0,1,0,0,0,1 @ F,0,0,1,0,0,0,1 @ F,0,0,1,0,0,0,1 @ F,0,0,1,0,0,0,1 @ F,0,0,1,0,0,0,1 @ F,0,0,1,0,0,0,1 @ F,0,0,1,0,0,0,1 @ F,0,0,1,0,0,0,1 @ F,0,0,1,0,0,0,1 @ F,0,0,1,0,0,0,1 @ F,0,0,1,0,0,0,1 @ F,0,0,1,0,0,0,1 @ F,0,0,1,0,0,0,1 @ F,0,0,1,0,0,0,1 @ F,0,0,1,0,0,0,1 @ F,0,1,1,0,13.215188,0,1 @ F,0,1,1,0,13.215188,0,1 @ F,0,0,1,0,0,0,1 @ F,0,0,1,0,0,0,1 @ F,0,0,1,0,0,0,1 @ F,0,0,1,0,0,0,1 @ F,0,0,1,0,0,0,1 @ F,0,0,1,0,0,0,1 @ F,0,0,1,0,0,0,1 @ F,0,0,1,0,0,0,1 @ F,0,0,1,0,0,0,1 @ F,0,0,1,0,0,0,1 @ F,0,0,1,0,0,0,1 @ F,0,1,1,0,13.215188,0,1 @ F,0,1,1,0,13.215188,0,1 @ F,0,0,1,0,0,0,1 @ F,0,0,1,0,0,0,1 @ F,0,0,1,0,0,0,1 @ F,0,0,1,0,0,0,1 @ F,0,1,1,0,13.215188,0,1" unit="px" method="auto" mode="F" radius="0" chamfer_steps="1" flexible="false" use_knot_distance="true" apply_no_radius="true" apply_with_radius="true" only_selected="false" hide_knots="false" /><inkscape:path-effect effect="fillet_chamfer" id="path-effect857" is_visible="true" lpeversion="1" satellites_param="F,0,1,1,0,28.911561,0,1 @ F,0,0,1,0,0,0,1 @ F,0,0,1,0,0,0,1 @ F,0,0,1,0,0,0,1 @ F,0,0,1,0,0,0,1 @ F,0,0,1,0,0,0,1 @ F,0,0,1,0,0,0,1 @ F,0,0,1,0,0,0,1 @ F,0,0,1,0,0,0,1 @ F,0,0,1,0,0,0,1 @ F,0,0,1,0,0,0,1 @ F,0,0,1,0,0,0,1 @ F,0,1,1,0,28.911561,0,1 @ F,0,1,1,0,28.911561,0,1 @ F,0,0,1,0,0,0,1 @ F,0,0,1,0,0,0,1 @ F,0,0,1,0,0,0,1 @ F,0,0,1,0,0,0,1 @ F,0,0,1,0,0,0,1 @ F,0,0,1,0,0,0,1 @ F,0,0,1,0,0,0,1 @ F,0,0,1,0,0,0,1 @ F,0,0,1,0,0,0,1 @ F,0,0,1,0,0,0,1 @ F,0,1,1,0,28.911561,0,1 @ F,0,1,1,0,28.911561,0,1 @ F,0,0,1,0,0,0,1 @ F,0,0,1,0,0,0,1 @ F,0,0,1,0,0,0,1 @ F,0,0,1,0,0,0,1 @ F,0,0,1,0,0,0,1 @ F,0,1,1,0,28.911561,0,1" unit="px" method="auto" mode="F" radius="0" chamfer_steps="1" flexible="false" use_knot_distance="true" apply_no_radius="true" apply_with_radius="true" only_selected="true" hide_knots="false" /><inkscape:path-effect effect="fillet_chamfer" id="path-effect855" is_visible="true" lpeversion="1" satellites_param="F,0,0,1,0,21.611961,0,1 @ F,0,0,1,0,0,0,1 @ F,0,0,1,0,0,0,1 @ F,0,0,1,0,0,0,1 @ F,0,0,1,0,0,0,1 @ F,0,0,1,0,0,0,1 @ F,0,0,1,0,0,0,1 @ F,0,0,1,0,0,0,1 @ F,0,0,1,0,0,0,1 @ F,0,0,1,0,0,0,1 @ F,0,0,1,0,0,0,1 @ F,0,0,1,0,0,0,1 @ F,0,0,1,0,27.23641,0,1 @ F,0,0,1,0,31.607818,0,1 @ F,0,0,1,0,0,0,1 @ F,0,0,1,0,0,0,1 @ F,0,0,1,0,0,0,1 @ F,0,0,1,0,0,0,1 @ F,0,0,1,0,0,0,1 @ F,0,0,1,0,0,0,1 @ F,0,0,1,0,0,0,1 @ F,0,0,1,0,0,0,1 @ F,0,0,1,0,0,0,1 @ F,0,0,1,0,26.988581,0,1 @ F,0,0,1,0,33.469615,0,1 @ F,0,0,1,0,0,0,1 @ F,0,0,1,0,0,0,1 @ F,0,0,1,0,0,0,1 @ F,0,0,1,0,0,0,1 @ F,0,0,1,0,35.476191,0,1" unit="px" method="auto" mode="F" radius="0" chamfer_steps="1" flexible="false" use_knot_distance="true" apply_no_radius="true" apply_with_radius="true" only_selected="true" hide_knots="false" /><inkscape:path-effect effect="spiro" id="path-effect856" is_visible="true" lpeversion="1" /><inkscape:path-effect effect="spiro" id="path-effect1521" is_visible="true" lpeversion="1" /><inkscape:path-effect effect="spiro" id="path-effect858" is_visible="true" lpeversion="1" /><inkscape:path-effect effect="spiro" id="path-effect854" is_visible="true" lpeversion="1" />
  <svg:style type="text/css" id="style2">
   
    .fil0 {fill:#EF7F1A;fill-rule:nonzero}
   
  </svg:style>
 <inkscape:path-effect effect="spiro" id="path-effect1214" is_visible="true" lpeversion="1" /><inkscape:path-effect effect="spiro" id="path-effect1195" is_visible="true" lpeversion="1" /><inkscape:path-effect effect="spiro" id="path-effect992" is_visible="true" lpeversion="1" /><inkscape:path-effect effect="spiro" id="path-effect287" is_visible="true" lpeversion="1" /><inkscape:path-effect effect="spiro" id="path-effect1032" is_visible="true" lpeversion="1" /><inkscape:path-effect effect="spiro" id="path-effect1218" is_visible="true" lpeversion="1" /><inkscape:path-effect effect="spiro" id="path-effect309" is_visible="true" lpeversion="1" /><inkscape:path-effect effect="spiro" id="path-effect1176" is_visible="true" lpeversion="1" /><inkscape:path-effect effect="spiro" id="path-effect1112" is_visible="true" lpeversion="1" /></svg:defs>
 
<svg:g id="path854"><svg:path style="color:#000000;clip-rule:nonzero;fill:#1a5fb4;fill-rule:nonzero;stroke-linecap:round;stroke-linejoin:round;-inkscape-stroke:none;paint-order:fill stroke markers;shape-rendering:auto" d="M 359.375,84.046875 C 336.58317,84.120825 314.01745,88.786309 293.08789,97.472656 C 265.22348,109.03716 240.8485,127.43491 221.77344000000002,150.23437 C 207.48356,167.31434000000002 196.71557,186.20272 188.34961,205.72266000000002 C 171.82494000000003,176.30985 148.89066000000003,149.28909000000002 117.44531,131.34180000000003 C 86.780657,113.84008000000003 50.99831800000001,107.13817000000003 16.238281,111.90039000000003 C -8.756242399999998,115.32471000000002 -22.544902,133.94857000000002 -22.824219,156.94531000000003 L -24.40625,287.23047 C -24.45682,291.39378000000005 -24.32691,296.01562 -21.955078,302.37891 C -19.583245,308.74219 -12.99304,318.1489 -2.529296900000002,322.02344 C 7.934446399999999,325.89797 17.366425999999997,323.43905 22.859374999999996,320.99023 C 28.352323999999996,318.54142 31.61828,315.82405 34.517578,313.17578 C 39.03682,309.04782 44.624422,305.89941999999996 50.320312,304.24219 C 58.367145,301.90094999999997 67.816897,302.2897 75.644531,305.28319999999997 C 84.185419,308.54947 92.831162,315.57199999999995 99.529297,324.80078 C 106.34539,334.19208999999995 111.59995,346.13365 115.55664,359.5 C 124.06032,388.22679 125.58897,419.28037 120.01953,448.77734 C 115.86295,470.79148999999995 130.21348,494.37377 153.19336,499.36913999999996 L 233.56641000000002,516.83984 C 244.55988000000002,519.2296 258.90056000000004,516.89364 268.83594000000005,507.7793 C 278.77132000000006,498.66499 282.24303000000003,485.05377999999996 281.08398000000005,474.06640999999996 C 278.16883000000007,446.43166999999994 278.35579000000007,418.44764999999995 281.64844000000005,390.86328 C 284.1654500000001,369.77684999999997 288.4782900000001,349.91638 296.00977000000006,332.63280999999995 C 303.47441000000003,315.50260999999995 314.4661300000001,300.62132999999994 327.73242000000005,291.02343999999994 C 334.28674000000007,286.28151999999994 341.36559000000005,282.83786999999995 348.27930000000003,281.0429699999999 C 355.12778000000003,279.26499999999993 362.16127000000006,279.0709299999999 368.16016,280.3808599999999 C 376.14297,282.12400999999994 384.72078,287.1712299999999 391.56641,294.3906199999999 C 398.54076000000003,301.7457699999999 404.27085,311.6500499999999 408.36914,322.8925799999999 C 418.67387,351.1607299999999 418.00275,385.2637199999999 412.08789,420.0234399999999 C 405.07855,461.2150999999999 391.94231,500.9965499999999 371.42383,535.7910199999999 C 350.9593,570.4939799999999 322.71384,600.4618799999998 289.16797,620.2031199999999 C 240.72941,648.7085 178.26948,655.28263 126.78711,635.45898 C 105.58715,627.2958 85.880143,614.82018 69.367187,599.15234 C 62.054684,592.21409 48.804299,584.93655 33.320312,589.14453 C 17.836326,593.35251 9.6001591,607.27843 7.1796875,617.35742 L -26.083984,755.87109 C -31.541541000000002,778.59669 -20.082160000000002,800.85191 2.7714843999999985,808.62109 C 105.24232,843.45646 220.96926,833.9672899999999 316.23437,782.24609 C 385.93207,744.4059199999999 442.39604,686.08887 482.05078000000003,618.88281 C 521.6458600000001,551.77785 544.5627400000001,476.4610799999999 554.18555,400.45116999999993 C 561.94174,339.18548999999996 561.47518,272.7031799999999 535.41602,211.38866999999993 C 522.34847,180.6421 502.92654,151.90253 476.75977,129.20508 C 450.49269,106.42063 417.85149,90.298688 382.19141,85.523437 C 374.59591,84.506323 366.97228,84.022225 359.375,84.046875 M 359.59375,144.06641 C 364.51282,144.04271 369.4077,144.34885 374.22656,144.99414 C 396.8543,148.02423 419.2882,158.7815 437.44531,174.53125 C 455.70272,190.368 470.2622,211.48124 480.19727,234.85742 C 500.14332,281.78842 501.67619,337.49491 494.66016,392.91405999999995 C 485.91057,462.02642999999995 465.1186,529.5131299999999 430.37695,588.39258 C 395.69496000000004,647.1709199999999 346.46564,697.5623599999999 287.60742000000005,729.51758 C 211.85321,770.64594 118.47631,780.0833 35.589844,756.0 L 57.173828,666.12305 C 72.137259,676.36141 88.251191,684.9146900000001 105.22656,691.45117 C 175.50371,718.51187 255.59026,709.5806600000001 319.59961,671.9121100000001 C 363.22342,646.2401500000001 398.08885,608.6950800000001 423.10742,566.2695300000001 C 448.07204,523.9354800000001 463.22694,477.16992000000016 471.23828,430.08984000000015 C 478.05553,390.02703000000014 480.42972,345.3815500000002 464.74023,302.34180000000015 C 458.42812,285.02626000000015 449.04409,267.8091400000001 435.10352,253.10742000000016 C 421.03421000000003,238.26995000000016 402.67475,226.50321000000017 380.96094,221.76172000000017 C 364.72111,218.21555000000018 348.387,219.02484000000015 333.20312,222.96680000000018 C 318.08448,226.89181000000016 304.45045,233.80947000000018 292.5625,242.4101600000002 C 268.58475,259.7575700000002 251.90299,283.6523500000002 241.00391,308.6640600000002 C 236.90738,318.06496000000016 233.8261,327.58612000000016 231.16405999999998,337.11523000000017 C 228.81527999999997,326.06867000000017 226.30962999999997,314.8485200000002 223.63476999999997,303.4628900000002 C 225.61357999999998,291.3015300000002 227.80033999999998,279.3502400000002 230.67577999999997,267.86523000000017 C 238.19104,237.84801000000016 250.02665999999996,209.96917000000016 267.79102,188.73633000000018 C 280.86466,173.11005000000017 297.67865,160.52902000000017 316.08789,152.8886700000002 C 329.86357000000004,147.1713800000002 344.83653000000004,144.1376100000002 359.59375,144.0664100000002 L 359.59375,144.06641 M 40.728516,170.48828 C 57.178419,170.97425 73.66263000000001,175.43762 87.703125,183.45117 C 113.13406,197.96577 133.22015,225.06441999999998 146.33398,256.02344 C 152.911,271.55039999999997 157.98151,288.2102 162.42383,305.6543 C 162.08569,307.94968 161.84304,310.12035 161.52344000000002,312.4043 C 157.76602000000003,304.62435 153.44039000000004,296.93138999999996 148.08789000000002,289.55663999999996 C 135.75223,272.5604 118.8018,257.55067 97.076172,249.24219 C 77.547364,241.77383 56.273483,240.70096 36.099609,246.00195 L 37.015625,170.52929999999998 C 38.253929,170.5203 39.488772,170.4517 40.728516,170.48829999999998 L 40.728516,170.48828 M -4.8222656000000015,267.95703000000003 C -5.184774700000001,268.27877 -5.589225300000002,268.54796000000005 -5.9472656000000015,268.87500000000006 C -5.839251300000002,268.77630000000005 -5.521767600000001,268.44527000000005 -4.8222656000000015,267.95703000000003" id="path19754" /></svg:g></svg:svg>

<svg:svg xmlns:cc="http://creativecommons.org/ns#" xmlns:dc="http://purl.org/dc/elements/1.1/" xmlns:inkscape="http://www.inkscape.org/namespaces/inkscape" xmlns:rdf="http://www.w3.org/1999/02/22-rdf-syntax-ns#" xmlns:sodipodi="http://sodipodi.sourceforge.net/DTD/sodipodi-0.dtd" xmlns:svg="http://www.w3.org/2000/svg" xml:space="preserve" width="1200" height="1000" version="1.1" style="clip-rule:evenodd;fill-rule:evenodd;image-rendering:optimizeQuality;shape-rendering:geometricPrecision;text-rendering:geometricPrecision" viewBox="0 0 1200 1000" id="svg10" sodipodi:docname="ൗ.svg" inkscape:version="1.0.2 (e86c870879, 2021-01-15)"><svg:metadata id="metadata14"><rdf:RDF><cc:Work rdf:about=""><dc:format>image/svg+xml</dc:format><dc:type rdf:resource="http://purl.org/dc/dcmitype/StillImage" /><dc:title /></cc:Work></rdf:RDF></svg:metadata><sodipodi:namedview pagecolor="#ffffff" bordercolor="#666666" borderopacity="1" objecttolerance="10" gridtolerance="10" guidetolerance="10" inkscape:pageopacity="0" inkscape:pageshadow="2" inkscape:window-width="1920" inkscape:window-height="1127" id="namedview12" showgrid="false" inkscape:zoom="1.356" inkscape:cx="143.39159" inkscape:cy="526.25735" inkscape:window-x="0" inkscape:window-y="0" inkscape:window-maximized="1" inkscape:current-layer="svg10" showguides="true" inkscape:guide-bbox="true" inkscape:document-rotation="0" inkscape:snap-to-guides="true" inkscape:pagecheckerboard="0"><sodipodi:guide position="0,1000" orientation="0,1" id="guide16" inkscape:label="" inkscape:locked="true" inkscape:color="rgb(0,0,255)" /><sodipodi:guide position="1763.3122,2036.1693" orientation="1000,0" id="guide18" /><sodipodi:guide position="0,200" orientation="0,1" id="guide20" inkscape:label="base" inkscape:locked="true" inkscape:color="rgb(0,0,255)" /><inkscape:grid type="xygrid" id="grid24" originx="-473.37552" originy="-489.69235" /><sodipodi:guide position="0,0" orientation="0,1" id="guide34" inkscape:label="bottom" inkscape:locked="true" inkscape:color="rgb(0,0,255)" /><sodipodi:guide position="225.05109,1693.3186" orientation="0,1" id="guide44" inkscape:label="" inkscape:locked="false" inkscape:color="rgb(0,0,255)" /><sodipodi:guide position="0,900" orientation="0,1" id="guide46" inkscape:label="" inkscape:locked="true" inkscape:color="rgb(0,0,255)" /><sodipodi:guide position="0,1000" orientation="0,1000" id="guide860" /><sodipodi:guide position="538.82052,370.28724" orientation="-1,0" id="guide862" inkscape:label="width" inkscape:locked="false" inkscape:color="rgb(0,0,255)" /><sodipodi:guide position="1000,0" orientation="0,-1000" id="guide864" /><sodipodi:guide position="0,0" orientation="-1000,0" id="guide866" /></sodipodi:namedview>
 <svg:defs id="defs4"><inkscape:path-effect effect="fillet_chamfer" id="path-effect859" is_visible="true" lpeversion="1" satellites_param="F,0,0,1,0,13.215188,0,1 @ F,0,0,1,0,0,0,1 @ F,0,0,1,0,0,0,1 @ F,0,0,1,0,0,0,1 @ F,0,0,1,0,0,0,1 @ F,0,0,1,0,0,0,1 @ F,0,0,1,0,0,0,1 @ F,0,0,1,0,0,0,1 @ F,0,0,1,0,0,0,1 @ F,0,0,1,0,0,0,1 @ F,0,0,1,0,0,0,1 @ F,0,0,1,0,0,0,1 @ F,0,0,1,0,0,0,1 @ F,0,0,1,0,0,0,1 @ F,0,0,1,0,0,0,1 @ F,0,0,1,0,0,0,1 @ F,0,1,1,0,13.215188,0,1 @ F,0,1,1,0,13.215188,0,1 @ F,0,0,1,0,0,0,1 @ F,0,0,1,0,0,0,1 @ F,0,0,1,0,0,0,1 @ F,0,0,1,0,0,0,1 @ F,0,0,1,0,0,0,1 @ F,0,0,1,0,0,0,1 @ F,0,0,1,0,0,0,1 @ F,0,0,1,0,0,0,1 @ F,0,0,1,0,0,0,1 @ F,0,0,1,0,0,0,1 @ F,0,0,1,0,0,0,1 @ F,0,1,1,0,13.215188,0,1 @ F,0,1,1,0,13.215188,0,1 @ F,0,0,1,0,0,0,1 @ F,0,0,1,0,0,0,1 @ F,0,0,1,0,0,0,1 @ F,0,0,1,0,0,0,1 @ F,0,1,1,0,13.215188,0,1" unit="px" method="auto" mode="F" radius="0" chamfer_steps="1" flexible="false" use_knot_distance="true" apply_no_radius="true" apply_with_radius="true" only_selected="false" hide_knots="false" /><inkscape:path-effect effect="fillet_chamfer" id="path-effect857" is_visible="true" lpeversion="1" satellites_param="F,0,1,1,0,28.911561,0,1 @ F,0,0,1,0,0,0,1 @ F,0,0,1,0,0,0,1 @ F,0,0,1,0,0,0,1 @ F,0,0,1,0,0,0,1 @ F,0,0,1,0,0,0,1 @ F,0,0,1,0,0,0,1 @ F,0,0,1,0,0,0,1 @ F,0,0,1,0,0,0,1 @ F,0,0,1,0,0,0,1 @ F,0,0,1,0,0,0,1 @ F,0,0,1,0,0,0,1 @ F,0,1,1,0,28.911561,0,1 @ F,0,1,1,0,28.911561,0,1 @ F,0,0,1,0,0,0,1 @ F,0,0,1,0,0,0,1 @ F,0,0,1,0,0,0,1 @ F,0,0,1,0,0,0,1 @ F,0,0,1,0,0,0,1 @ F,0,0,1,0,0,0,1 @ F,0,0,1,0,0,0,1 @ F,0,0,1,0,0,0,1 @ F,0,0,1,0,0,0,1 @ F,0,0,1,0,0,0,1 @ F,0,1,1,0,28.911561,0,1 @ F,0,1,1,0,28.911561,0,1 @ F,0,0,1,0,0,0,1 @ F,0,0,1,0,0,0,1 @ F,0,0,1,0,0,0,1 @ F,0,0,1,0,0,0,1 @ F,0,0,1,0,0,0,1 @ F,0,1,1,0,28.911561,0,1" unit="px" method="auto" mode="F" radius="0" chamfer_steps="1" flexible="false" use_knot_distance="true" apply_no_radius="true" apply_with_radius="true" only_selected="true" hide_knots="false" /><inkscape:path-effect effect="fillet_chamfer" id="path-effect855" is_visible="true" lpeversion="1" satellites_param="F,0,0,1,0,21.611961,0,1 @ F,0,0,1,0,0,0,1 @ F,0,0,1,0,0,0,1 @ F,0,0,1,0,0,0,1 @ F,0,0,1,0,0,0,1 @ F,0,0,1,0,0,0,1 @ F,0,0,1,0,0,0,1 @ F,0,0,1,0,0,0,1 @ F,0,0,1,0,0,0,1 @ F,0,0,1,0,0,0,1 @ F,0,0,1,0,0,0,1 @ F,0,0,1,0,0,0,1 @ F,0,0,1,0,27.23641,0,1 @ F,0,0,1,0,31.607818,0,1 @ F,0,0,1,0,0,0,1 @ F,0,0,1,0,0,0,1 @ F,0,0,1,0,0,0,1 @ F,0,0,1,0,0,0,1 @ F,0,0,1,0,0,0,1 @ F,0,0,1,0,0,0,1 @ F,0,0,1,0,0,0,1 @ F,0,0,1,0,0,0,1 @ F,0,0,1,0,0,0,1 @ F,0,0,1,0,26.988581,0,1 @ F,0,0,1,0,33.469615,0,1 @ F,0,0,1,0,0,0,1 @ F,0,0,1,0,0,0,1 @ F,0,0,1,0,0,0,1 @ F,0,0,1,0,0,0,1 @ F,0,0,1,0,35.476191,0,1" unit="px" method="auto" mode="F" radius="0" chamfer_steps="1" flexible="false" use_knot_distance="true" apply_no_radius="true" apply_with_radius="true" only_selected="true" hide_knots="false" /><inkscape:path-effect effect="spiro" id="path-effect856" is_visible="true" lpeversion="1" /><inkscape:path-effect effect="spiro" id="path-effect1521" is_visible="true" lpeversion="1" /><inkscape:path-effect effect="spiro" id="path-effect858" is_visible="true" lpeversion="1" /><inkscape:path-effect effect="spiro" id="path-effect854" is_visible="true" lpeversion="1" />
  <svg:style type="text/css" id="style2">
   
    .fil0 {fill:#EF7F1A;fill-rule:nonzero}
   
  </svg:style>
 <inkscape:path-effect effect="spiro" id="path-effect1214" is_visible="true" lpeversion="1" /><inkscape:path-effect effect="spiro" id="path-effect1195" is_visible="true" lpeversion="1" /><inkscape:path-effect effect="spiro" id="path-effect992" is_visible="true" lpeversion="1" /><inkscape:path-effect effect="spiro" id="path-effect287" is_visible="true" lpeversion="1" /><inkscape:path-effect effect="spiro" id="path-effect1032" is_visible="true" lpeversion="1" /><inkscape:path-effect effect="spiro" id="path-effect1218" is_visible="true" lpeversion="1" /><inkscape:path-effect effect="spiro" id="path-effect309" is_visible="true" lpeversion="1" /><inkscape:path-effect effect="spiro" id="path-effect1176" is_visible="true" lpeversion="1" /><inkscape:path-effect effect="spiro" id="path-effect1112" is_visible="true" lpeversion="1" /></svg:defs>
 
<svg:g id="path854"><svg:path style="color:#000000;clip-rule:nonzero;fill:#1a5fb4;fill-rule:nonzero;stroke-linecap:round;stroke-linejoin:round;-inkscape-stroke:none;shape-rendering:auto" d="m 359.375,84.046875 c -22.79183,0.07395 -45.35755,4.739434 -66.28711,13.425781 -27.86441,11.564504 -52.23939,29.962254 -71.31445,52.761714 -14.28988,17.07997 -25.05787,35.96835 -33.42383,55.48829 -16.52467,-29.41281 -39.45895,-56.43357 -70.9043,-74.38086 -30.664653,-17.50172 -66.446992,-24.20363 -101.207029,-19.44141 -24.9945234,3.42432 -38.783183,22.04818 -39.0625,45.04492 l -1.582031,130.28516 c -0.05057,4.16331 0.07934,8.78515 2.451172,15.14844 2.371833,6.36328 8.962038,15.76999 19.4257811,19.64453 10.4637433,3.87453 19.8957229,1.41561 25.3886719,-1.03321 5.492949,-2.44881 8.758905,-5.16618 11.658203,-7.81445 4.519242,-4.12796 10.106844,-7.27636 15.802734,-8.93359 8.046833,-2.34124 17.496585,-1.95249 25.324219,1.04101 8.540888,3.26627 17.186631,10.2888 23.884766,19.51758 6.816093,9.39131 12.070653,21.33287 16.027343,34.69922 8.50368,28.72679 10.03233,59.78037 4.46289,89.27734 -4.15658,22.01415 10.19395,45.59643 33.17383,50.5918 l 80.37305,17.4707 c 10.99347,2.38976 25.33415,0.0538 35.26953,-9.06054 9.93538,-9.11431 13.40709,-22.72552 12.24804,-33.71289 -2.91515,-27.63474 -2.72819,-55.61876 0.56446,-83.20313 2.51701,-21.08643 6.82985,-40.9469 14.36133,-58.23047 7.46464,-17.1302 18.45636,-32.01148 31.72265,-41.60937 6.55432,-4.74192 13.63317,-8.18557 20.54688,-9.98047 6.84848,-1.77797 13.88197,-1.97204 19.88086,-0.66211 7.98281,1.74315 16.56062,6.79037 23.40625,14.00976 6.97435,7.35515 12.70444,17.25943 16.80273,28.50196 10.30473,28.26815 9.63361,62.37114 3.71875,97.13086 -7.00934,41.19166 -20.14558,80.97311 -40.66406,115.76758 -20.46453,34.70296 -48.70999,64.67086 -82.25586,84.4121 C 240.72941,648.7085 178.26948,655.28263 126.78711,635.45898 105.58715,627.2958 85.880143,614.82018 69.367187,599.15234 62.054684,592.21409 48.804299,584.93655 33.320312,589.14453 17.836326,593.35251 9.6001591,607.27843 7.1796875,617.35742 L -26.083984,755.87109 c -5.457557,22.7256 6.001824,44.98082 28.8554684,52.75 102.4708356,34.83537 218.1977756,25.3462 313.4628856,-26.375 69.6977,-37.84017 126.16167,-96.15722 165.81641,-163.36328 39.59508,-67.10496 62.51196,-142.42173 72.13477,-218.43164 7.75619,-61.26568 7.28963,-127.74799 -18.76953,-189.0625 C 522.34847,180.6421 502.92654,151.90253 476.75977,129.20508 450.49269,106.42063 417.85149,90.298688 382.19141,85.523437 374.59591,84.506323 366.97228,84.022225 359.375,84.046875 Z m 0.21875,60.019535 c 4.91907,-0.0237 9.81395,0.28244 14.63281,0.92773 22.62774,3.03009 45.06164,13.78736 63.21875,29.53711 18.25741,15.83675 32.81689,36.94999 42.75196,60.32617 19.94605,46.931 21.47892,102.63749 14.46289,158.05664 -8.74959,69.11237 -29.54156,136.59907 -64.28321,195.47852 -34.68199,58.77834 -83.91131,109.16978 -142.76953,141.125 C 211.85321,770.64594 118.47631,780.0833 35.589844,756 l 21.583984,-89.87695 c 14.963431,10.23836 31.077363,18.79164 48.052732,25.32812 70.27715,27.0607 150.3637,18.12949 214.37305,-19.53906 43.62381,-25.67196 78.48924,-63.21703 103.50781,-105.64258 24.96462,-42.33405 40.11952,-89.09961 48.13086,-136.17969 6.81725,-40.06281 9.19144,-84.70829 -6.49805,-127.74804 -6.31211,-17.31554 -15.69614,-34.53266 -29.63671,-49.23438 -14.06931,-14.83747 -32.42877,-26.60421 -54.14258,-31.3457 -16.23983,-3.54617 -32.57394,-2.73688 -47.75782,1.20508 -15.11864,3.92501 -28.75267,10.84267 -40.64062,19.44336 -23.97775,17.34741 -40.65951,41.24219 -51.55859,66.2539 -4.09653,9.4009 -7.17781,18.92206 -9.83985,28.45117 -2.34878,-11.04656 -4.85443,-22.26671 -7.52929,-33.65234 1.97881,-12.16136 4.16557,-24.11265 7.04101,-35.59766 7.51526,-30.01722 19.35088,-57.89606 37.11524,-79.1289 13.07364,-15.62628 29.88763,-28.20731 48.29687,-35.84766 13.77568,-5.71729 28.74864,-8.75106 43.50586,-8.82226 z M 40.728516,170.48828 c 16.449903,0.48597 32.934114,4.94934 46.974609,12.96289 25.430935,14.5146 45.517025,41.61325 58.630855,72.57227 6.57702,15.52696 11.64753,32.18676 16.08985,49.63086 -0.33814,2.29538 -0.58079,4.46605 -0.90039,6.75 -3.75742,-7.77995 -8.08305,-15.47291 -13.43555,-22.84766 C 135.75223,272.5604 118.8018,257.55067 97.076172,249.24219 77.547364,241.77383 56.273483,240.70096 36.099609,246.00195 l 0.916016,-75.47265 c 1.238304,-0.009 2.473147,-0.0776 3.712891,-0.041 z m -45.5507816,97.46875 c -0.3625091,0.32174 -0.7669597,0.59093 -1.125,0.91797 0.1080143,-0.0987 0.425498,-0.42973 1.125,-0.91797 z" id="path19702" /></svg:g></svg:svg>
